X: 146
T: Cantantibus organis – Allegro
C: Franciszek Walczyński
%%abc-version 2.0
%%abcx-abcm2ps-target-version 5.9.1 (29 Sep 2008)
%%abc-creator hum2abc beta
%%abcx-conversion-date 2021/10/04 07:38:40
%%abc-edited-by Andrzej Kubiczek
%%abc-edited-by Krzysztof Stępień
%%abcx-initial-encoding-date 2021-08-09
%%humdrum-veritas 256504280
%%humdrum-veritas-data 157642739
%%linebreak <none>
%%barnumbers 0
L: 1/8
M: 6/8
N: Derived from pl-kozmzk--mzk-m-346--048_walczynski-franciszek--cantantibus-organis-allegro.krn
Q: "Allegro."
%%staves {1 2}
V: 1 clef=treble
V: 2 clef=bass
K: Eb
[V:1] BeG BEG & z6 | 
[V:2] z6 & z6 | 
[V:1] FEFG3 & DE2D3 | 
[V:2] B,G,C=B,3 & B,,C,A,,G,,3 | 
[V:1] z6 & z6 | 
[V:2] _B,EG, B,E,G, & z6 | 
[V:1] F2EE3 & D2EB,3 | 
[V:2] A,3G,3 & B,,3E,3 | 
[V:1] G=A=B cde & z2zG3- | 
[V:2] G^F=F EDC & z6 | 
[V:1] dgf edc & G6 | 
[V:2] =B,2>C2DE & z6 | 
[V:1] d2c=B3 & A2=AG3 | 
[V:2] F2^FG3 & z6 | 
[V:1] G,=A,=B, CDE | 
[V:2] G,^F,=F, E,D,C, | 
[V:1] DGF EDC | 
[V:2] =B,,2>C,2D,E, | 
[V:1] D2C!fermata!B,3 | 
[V:2] [_A,6F,6] & !fermata!_B,,6 | 
[V:1] BeG BEG & z6 | 
[V:2] x6 | 
[V:1] F3E2z & D3C2x | 
[V:2] B,2A,G,2z & B,,2=B,,C,2z | 
[V:1] EGC EG,C & z6 | 
[V:2] z6 & z6 | 
[V:1] B,CD!accent!E3 & B,=A,_A,G,3- | 
[V:2] z z F,E,3- & z z B,,E,,3- | 
[V:1] E6- & G,2>A,2B,C | 
[V:2] E,D,_D,C,3 & E,,6- | 
[V:1] E6- & A,E,F,G,3 | 
[V:2] _C,3B,,3 & E,,6- | 
[V:1] E6- & A,A,B, CB,A, | 
[V:2] C,2_D, E,D,C, & E,,6- | 
[V:1] E6- & G,A,F,G,3- | 
[V:2] B,,C,A,,B,,3- & E,,6- | 
[V:1] E2z!accent!E2z & G,2xA,2x | 
[V:2] B,,2z_C,2z & E,,2z!accent!E,,2z | 
[V:1] !fermata!E6 & G,6 |]  
[V:2] B,,6 & !fermata!E,,6 |]  


